packages/icons/raw/imported/TimeTime.svg

<svg width="32" height="32" viewBox="0 0 32 32" fill="none" xmlns="http://www.w3.org/2000/svg">
<path d="M16 25C15.7239 25 15.5 25.2239 15.5 25.5C15.5 25.7761 15.7239 26 16 26V25ZM6 16C6 16.2761 6.22386 16.5 6.5 16.5C6.77614 16.5 7 16.2761 7 16H6ZM16.5 10.8846C16.5 10.6085 16.2761 10.3846 16 10.3846C15.7239 10.3846 15.5 10.6085 15.5 10.8846H16.5ZM16 17.4615L16.3201 17.8456C16.4341 17.7507 16.5 17.6099 16.5 17.4615H16ZM11.2953 20.7313C11.0832 20.9081 11.0545 21.2233 11.2313 21.4355C11.4081 21.6476 11.7233 21.6763 11.9355 21.4995L11.2953 20.7313ZM25 16C25 20.9706 20.9706 25 16 25V26C21.5228 26 26 21.5228 26 16H25ZM7 16C7 11.0294 11.0294 7 16 7V6C10.4772 6 6 10.4772 6 16H7ZM16 7C20.9706 7 25 11.0294 25 16H26C26 10.4772 21.5228 6 16 6V7ZM15.5 10.8846V17.4615H16.5V10.8846H15.5ZM15.6799 17.0774L11.2953 20.7313L11.9355 21.4995L16.3201 17.8456L15.6799 17.0774Z" fill="black"/>
</svg>

<svg width="32" height="32" fill="none" xmlns="http://www.w3.org/2000/svg"><path d="M16 25a.5.5 0 0 0 0 1v-1ZM6 16a.5.5 0 0 0 1 0H6Zm10.5-5.115a.5.5 0 0 0-1 0h1Zm-.5 6.577.32.384a.5.5 0 0 0 .18-.384H16Zm-4.705 3.27a.5.5 0 0 0 .64.768l-.64-.769ZM25 16a9 9 0 0 1-9 9v1c5.523 0 10-4.477 10-10h-1ZM7 16a9 9 0 0 1 9-9V6C10.477 6 6 10.477 6 16h1Zm9-9a9 9 0 0 1 9 9h1c0-5.523-4.477-10-10-10v1Zm-.5 3.885v6.577h1v-6.577h-1Zm.18 6.192-4.385 3.654.64.768 4.385-3.653-.64-.769Z" fill="#000"/></svg>
